src/pages/elements/pictograms/images/11_Gradients_8_dont.svg

<?xml version="1.0" encoding="UTF-8"?>
<svg width="288px" height="288px" viewBox="0 0 288 288" version="1.1" xmlns="http://www.w3.org/2000/svg" xmlns:xlink="http://www.w3.org/1999/xlink">
    <!-- Generator: Sketch 52.4 (67378) - http://www.bohemiancoding.com/sketch -->
    <title>Artboard</title>
    <desc>Created with Sketch.</desc>
    <defs>
        <path d="M4.30675,92.6325 C4.30675,141.32925 43.92425,180.9525 92.62675,180.9525 C141.32925,180.9525 180.94675,141.32925 180.94675,92.6325 C180.94675,43.93 141.32925,4.30675 92.62675,4.30675 C43.92425,4.30675 4.30675,43.93 4.30675,92.6325 Z M18.31375,53.18175 C32.38975,26.76625 60.11625,8.7055 92.0345,8.48125 L104.4315,29.12375 L73.853,62.4795 C73.2435,63.1465 73.13425,64.1355 73.5885,64.92325 L112.999,132.47425 L68.126,173.14975 C62.583,171.4535 57.27,169.21675 52.27325,166.474 L65.688,142.5195 C66.00425,141.95025 66.033,141.2545 65.7685,140.6565 L54.90675,116.219 L74.44525,99.9695 C75.19275,99.34275 75.4055,98.279 74.957,97.42225 L59.961,68.67225 C59.6045,67.988 58.89725,67.55675 58.1325,67.55675 L26.68575,67.55675 L18.31375,53.18175 Z M72.9215,174.38025 L117.01825,134.412 C117.7485,133.7565 117.9095,132.687 117.415,131.836 L77.9355,64.15275 L108.53125,30.77975 C109.15225,30.107 109.25,29.095 108.7785,28.30725 L96.97375,8.671 C121.7965,9.9475 143.80175,21.9535 158.38375,40.2155 L140.58175,71.231 C140.208,71.8865 140.21375,72.6915 140.60475,73.32975 L159.85575,105.202 C160.2295,105.823 160.908,106.19675 161.6325,106.19675 L175.61075,106.19675 C169.09025,146.17075 134.41775,176.80675 92.62675,176.80675 C85.83025,176.80675 79.25225,175.904 72.9215,174.38025 Z M144.7735,72.23725 L161.08625,43.83225 C170.9475,57.60925 176.80675,74.428 176.80675,92.6325 C176.80675,95.818 176.594,98.9575 176.24325,102.05675 L162.794,102.05675 L144.7735,72.23725 Z M8.4525,92.6325 C8.4525,80.155 11.25275,68.3445 16.14025,57.684 L23.713,70.67325 C24.081,71.3115 24.76525,71.7025 25.4955,71.7025 L56.87325,71.7025 L70.51225,97.85925 L51.0485,114.03975 C50.34125,114.632 50.11125,115.621 50.485,116.472 L61.56525,141.39825 L48.73125,164.31775 C24.61575,149.5 8.4525,122.95225 8.4525,92.6325 Z" id="path-1"></path>
        <radialGradient cx="50.0012207%" cy="49.9995931%" fx="50.0012207%" fy="49.9995931%" r="50.0011445%" gradientTransform="translate(0.500012,0.499996),scale(1.000000,0.999967),translate(-0.500012,-0.499996)" id="radialGradient-3">
            <stop stop-color="#007D7A" offset="0%"></stop>
            <stop stop-color="#00BB59" offset="100%"></stop>
        </radialGradient>
    </defs>
    <g id="Artboard" stroke="none" stroke-width="1" fill="none" fill-rule="evenodd">
        <rect id="Rectangle-3-Copy-45" fill="#FFFFFF" x="0" y="0" width="288" height="288"></rect>
        <g id="Group-5-Copy" transform="translate(52.000000, 52.000000)">
            <polygon id="Fill-1" points="0 184 184 184 184 0 0 0"></polygon>
            <g id="Group-4">
                <mask id="mask-2" fill="white">
                    <use xlink:href="#path-1"></use>
                </mask>
                <g id="Clip-3"></g>
                <path d="M4.30675,92.6325 C4.30675,141.32925 43.92425,180.9525 92.62675,180.9525 C141.32925,180.9525 180.94675,141.32925 180.94675,92.6325 C180.94675,43.93 141.32925,4.30675 92.62675,4.30675 C43.92425,4.30675 4.30675,43.93 4.30675,92.6325 Z M18.31375,53.18175 C32.38975,26.76625 60.11625,8.7055 92.0345,8.48125 L104.4315,29.12375 L73.853,62.4795 C73.2435,63.1465 73.13425,64.1355 73.5885,64.92325 L112.999,132.47425 L68.126,173.14975 C62.583,171.4535 57.27,169.21675 52.27325,166.474 L65.688,142.5195 C66.00425,141.95025 66.033,141.2545 65.7685,140.6565 L54.90675,116.219 L74.44525,99.9695 C75.19275,99.34275 75.4055,98.279 74.957,97.42225 L59.961,68.67225 C59.6045,67.988 58.89725,67.55675 58.1325,67.55675 L26.68575,67.55675 L18.31375,53.18175 Z M72.9215,174.38025 L117.01825,134.412 C117.7485,133.7565 117.9095,132.687 117.415,131.836 L77.9355,64.15275 L108.53125,30.77975 C109.15225,30.107 109.25,29.095 108.7785,28.30725 L96.97375,8.671 C121.7965,9.9475 143.80175,21.9535 158.38375,40.2155 L140.58175,71.231 C140.208,71.8865 140.21375,72.6915 140.60475,73.32975 L159.85575,105.202 C160.2295,105.823 160.908,106.19675 161.6325,106.19675 L175.61075,106.19675 C169.09025,146.17075 134.41775,176.80675 92.62675,176.80675 C85.83025,176.80675 79.25225,175.904 72.9215,174.38025 Z M144.7735,72.23725 L161.08625,43.83225 C170.9475,57.60925 176.80675,74.428 176.80675,92.6325 C176.80675,95.818 176.594,98.9575 176.24325,102.05675 L162.794,102.05675 L144.7735,72.23725 Z M8.4525,92.6325 C8.4525,80.155 11.25275,68.3445 16.14025,57.684 L23.713,70.67325 C24.081,71.3115 24.76525,71.7025 25.4955,71.7025 L56.87325,71.7025 L70.51225,97.85925 L51.0485,114.03975 C50.34125,114.632 50.11125,115.621 50.485,116.472 L61.56525,141.39825 L48.73125,164.31775 C24.61575,149.5 8.4525,122.95225 8.4525,92.6325 Z" id="Fill-2" fill="url(#radialGradient-3)" mask="url(#mask-2)"></path>
            </g>
        </g>
    </g>
</svg>

<svg xmlns="http://www.w3.org/2000/svg" xmlns:xlink="http://www.w3.org/1999/xlink" viewBox="0 0 288 288"><defs><radialGradient cx="50.001%" cy="50%" fx="50.001%" fy="50%" r="50.001%" gradientTransform="scale(1 .99997)" id="b"><stop stop-color="#007D7A" offset="0%"/><stop stop-color="#00BB59" offset="100%"/></radialGradient><path d="M4.307 92.632c0 48.697 39.617 88.32 88.32 88.32 48.702 0 88.32-39.623 88.32-88.32 0-48.702-39.618-88.325-88.32-88.325-48.703 0-88.32 39.623-88.32 88.325zm14.007-39.45c14.076-26.416 41.802-44.477 73.72-44.7l12.397 20.642L73.853 62.48a2.082 2.082 0 00-.264 2.443l39.41 67.551-44.873 40.676a84.05 84.05 0 01-15.853-6.676l13.415-23.954c.316-.57.345-1.266.08-1.864L54.907 116.22l19.538-16.25c.748-.626.96-1.69.512-2.547l-14.996-28.75a2.069 2.069 0 00-1.828-1.115H26.686l-8.372-14.375zM72.92 174.38l44.097-39.968a2.06 2.06 0 00.397-2.576l-39.48-67.683L108.53 30.78a2.08 2.08 0 00.247-2.473L96.974 8.671c24.822 1.277 46.828 13.282 61.41 31.544l-17.802 31.016a2.063 2.063 0 00.023 2.099l19.25 31.872a2.072 2.072 0 001.778.995h13.978c-6.52 39.974-41.193 70.61-82.984 70.61-6.797 0-13.375-.903-19.706-2.427zm71.853-102.143l16.312-28.405c9.861 13.777 15.72 30.596 15.72 48.8 0 3.186-.212 6.325-.563 9.425h-13.449l-18.02-29.82zM8.452 92.632c0-12.477 2.8-24.288 7.688-34.948l7.573 12.99a2.062 2.062 0 001.782 1.028h31.378l13.64 26.157-19.465 16.18a2.078 2.078 0 00-.563 2.433l11.08 24.926-12.834 22.92C24.616 149.5 8.452 122.952 8.452 92.632z" id="a"/></defs><g fill="none" fill-rule="evenodd"><path fill="#FFF" d="M0 0h288v288H0z"/><path d="M52 236h184V52H52z"/><g transform="translate(52 52)"><mask id="c" fill="#fff"><use xlink:href="#a"/></mask><path d="M4.307 92.632c0 48.697 39.617 88.32 88.32 88.32 48.702 0 88.32-39.623 88.32-88.32 0-48.702-39.618-88.325-88.32-88.325-48.703 0-88.32 39.623-88.32 88.325zm14.007-39.45c14.076-26.416 41.802-44.477 73.72-44.7l12.397 20.642L73.853 62.48a2.082 2.082 0 00-.264 2.443l39.41 67.551-44.873 40.676a84.05 84.05 0 01-15.853-6.676l13.415-23.954c.316-.57.345-1.266.08-1.864L54.907 116.22l19.538-16.25c.748-.626.96-1.69.512-2.547l-14.996-28.75a2.069 2.069 0 00-1.828-1.115H26.686l-8.372-14.375zM72.92 174.38l44.097-39.968a2.06 2.06 0 00.397-2.576l-39.48-67.683L108.53 30.78a2.08 2.08 0 00.247-2.473L96.974 8.671c24.822 1.277 46.828 13.282 61.41 31.544l-17.802 31.016a2.063 2.063 0 00.023 2.099l19.25 31.872a2.072 2.072 0 001.778.995h13.978c-6.52 39.974-41.193 70.61-82.984 70.61-6.797 0-13.375-.903-19.706-2.427zm71.853-102.143l16.312-28.405c9.861 13.777 15.72 30.596 15.72 48.8 0 3.186-.212 6.325-.563 9.425h-13.449l-18.02-29.82zM8.452 92.632c0-12.477 2.8-24.288 7.688-34.948l7.573 12.99a2.062 2.062 0 001.782 1.028h31.378l13.64 26.157-19.465 16.18a2.078 2.078 0 00-.563 2.433l11.08 24.926-12.834 22.92C24.616 149.5 8.452 122.952 8.452 92.632z" fill="url(#b)" mask="url(#c)"/></g></g></svg>
